libs/ui/packages/crypto-icons/src/svg/HTON1.svg

<svg width="24" height="24" viewBox="0 0 24 24" fill="none" xmlns="http://www.w3.org/2000/svg">
<path fill-rule="evenodd" clip-rule="evenodd" d="M4.38351 8.72066C3.42965 6.9869 4.68394 4.86523 6.66277 4.86523H17.5921C19.571 4.86523 20.8252 6.98689 19.8714 8.72065L13.6241 20.0758C12.9751 21.2556 11.2798 21.2556 10.6308 20.0758L4.38351 8.72066ZM6.66277 5.82523C5.41417 5.82523 4.62275 7.16394 5.22462 8.25791L11.4719 19.6131C11.5192 19.699 11.5791 19.7706 11.6474 19.8279V5.82523H6.66277ZM12.6074 5.82523V11.2238C13.1671 10.6404 13.9977 10.1425 15.2058 10.127C15.7135 10.1205 16.1408 10.228 16.4888 10.4326C16.8371 10.6373 17.0781 10.9229 17.2386 11.2286C17.2651 11.279 17.2894 11.3301 17.3118 11.3815L19.0303 8.25791C19.6321 7.16394 18.8407 5.82523 17.5921 5.82523H12.6074ZM16.5675 12.7343C16.5953 12.419 16.5607 12.0027 16.3886 11.6748C16.2988 11.5038 16.1745 11.3614 16.0023 11.2602C15.8298 11.1588 15.5813 11.0823 15.2181 11.0869C13.605 11.1076 12.8935 12.2741 12.6074 12.9735V19.8279C12.6758 19.7706 12.7357 19.699 12.783 19.6131L16.5675 12.7343Z" fill="white"/>
</svg>

<svg xmlns="http://www.w3.org/2000/svg" width="24" height="24" viewBox="0 0 24 24" fill="none"><path fill="#fff" fill-rule="evenodd" d="M4.384 8.72c-.954-1.733.3-3.855 2.279-3.855h10.93c1.978 0 3.232 2.122 2.278 3.856l-6.247 11.355c-.649 1.18-2.344 1.18-2.993 0zm2.279-2.895a1.64 1.64 0 0 0-1.438 2.433l6.247 11.355a.8.8 0 0 0 .175.215V5.825zm5.944 0v5.399c.56-.584 1.39-1.082 2.599-1.097.508-.007.935.101 1.283.306.348.204.59.49.75.796q.039.075.073.153l1.718-3.124a1.64 1.64 0 0 0-1.438-2.433zm3.96 6.91c.028-.316-.006-.732-.178-1.06a1 1 0 0 0-.387-.415c-.172-.101-.42-.178-.784-.173-1.613.02-2.325 1.187-2.61 1.886v6.855a.8.8 0 0 0 .175-.215z" clip-rule="evenodd"/></svg>
